_includes/icons/ios-address-book.svg

<svg fill="#666" height="50" viewBox="0 0 50 50" width="50" xmlns="http://www.w3.org/2000/svg"><path d="m11 4c-1.644531 0-3 1.355469-3 3v5h-1c-.03125 0-.0625 0-.09375 0-.550781.027344-.980469.496094-.953125 1.046875s.496094.980469 1.046875.953125h4c.359375.003906.695313-.183594.878906-.496094.179688-.3125.179688-.695312 0-1.007812-.183593-.3125-.519531-.5-.878906-.496094h-1v-5c0-.554687.445313-1 1-1h28c.554688 0 1 .445313 1 1v36c0 .554688-.445312 1-1 1h-28c-.554687 0-1-.445312-1-1v-4h-2v4c0 1.644531 1.355469 3 3 3h28c1.644531 0 3-1.355469 3-3v-36c0-1.644531-1.355469-3-3-3zm-3 11v3h-1c-.03125 0-.0625 0-.09375 0s-.0625 0-.09375 0c-.550781.050781-.957031.542969-.90625 1.09375s.542969.957031 1.09375.90625h4c.359375.003906.695313-.183594.878906-.496094.179688-.3125.179688-.695312 0-1.007812-.183593-.3125-.519531-.5-.878906-.496094h-1v-3zm18 1c-6.101562 0-10 4.8125-10 10.3125 0 5.300781 3.8125 8.5 8.3125 8.5 1.898438 0 3.273438-.199219 4.875-1l-.5-1.5c-1.101562.601563-2.5.875-4 .875-4 0-6.875-2.6875-6.875-7.1875 0-5.300781 3.574219-8.59375 7.875-8.59375 4.199219 0 6.5 2.800781 6.5 6.5 0 3.101563-1.480469 4.789063-2.78125 4.6875-.800781 0-1.019531-.792969-.71875-2.59375l.8125-5c-.699219-.300781-1.894531-.59375-3.09375-.59375-3.800781 0-6.3125 2.980469-6.3125 6.28125 0 2.199219 1.300781 3.5 3 3.5 1.5 0 2.695313-.6875 3.59375-2.1875h.125c.101563 1.5.988281 2.1875 2.1875 2.1875 2.800781 0 5-2.375 5-6.375 0-4.5-3.300781-7.8125-8-7.8125zm-18 5v3h-1c-.03125 0-.0625 0-.09375 0-.550781.027344-.980469.496094-.953125 1.046875s.496094.980469 1.046875.953125h4c.359375.003906.695313-.183594.878906-.496094.179688-.3125.179688-.695312 0-1.007812-.183593-.3125-.519531-.5-.878906-.496094h-1v-3zm18.09375 1.1875c.5 0 .894531.117188 1.09375.21875l-.5 2.6875c-.199219 1.601563-1.488281 3.21875-2.6875 3.21875-1.101562 0-1.59375-.710937-1.59375-1.8125 0-2.300781 1.585938-4.3125 3.6875-4.3125zm-18.09375 4.8125v3h-1c-.03125 0-.0625 0-.09375 0-.550781.027344-.980469.496094-.953125 1.046875s.496094.980469 1.046875.953125h4c.359375.003906.695313-.183594.878906-.496094.179688-.3125.179688-.695312 0-1.007812-.183593-.3125-.519531-.5-.878906-.496094h-1v-3zm0 6v3h-1c-.03125 0-.0625 0-.09375 0-.550781.027344-.980469.496094-.953125 1.046875s.496094.980469 1.046875.953125h4c.359375.003906.695313-.183594.878906-.496094.179688-.3125.179688-.695312 0-1.007812-.183593-.3125-.519531-.5-.878906-.496094h-1v-3z"/></svg>

<svg xmlns="http://www.w3.org/2000/svg" viewBox="0 0 50 50" width="50" height="50" fill="#666"><path d="M 11 4 C 9.355469 4 8 5.355469 8 7 L 8 12 L 7 12 C 6.96875 12 6.9375 12 6.90625 12 C 6.355469 12.027344 5.925781 12.496094 5.953125 13.046875 C 5.980469 13.597656 6.449219 14.027344 7 14 L 11 14 C 11.359375 14.003906 11.695313 13.816406 11.878906 13.503906 C 12.058594 13.191406 12.058594 12.808594 11.878906 12.496094 C 11.695313 12.183594 11.359375 11.996094 11 12 L 10 12 L 10 7 C 10 6.445313 10.445313 6 11 6 L 39 6 C 39.554688 6 40 6.445313 40 7 L 40 43 C 40 43.554688 39.554688 44 39 44 L 11 44 C 10.445313 44 10 43.554688 10 43 L 10 39 L 8 39 L 8 43 C 8 44.644531 9.355469 46 11 46 L 39 46 C 40.644531 46 42 44.644531 42 43 L 42 7 C 42 5.355469 40.644531 4 39 4 Z M 8 15 L 8 18 L 7 18 C 6.96875 18 6.9375 18 6.90625 18 C 6.875 18 6.84375 18 6.8125 18 C 6.261719 18.050781 5.855469 18.542969 5.90625 19.09375 C 5.957031 19.644531 6.449219 20.050781 7 20 L 11 20 C 11.359375 20.003906 11.695313 19.816406 11.878906 19.503906 C 12.058594 19.191406 12.058594 18.808594 11.878906 18.496094 C 11.695313 18.183594 11.359375 17.996094 11 18 L 10 18 L 10 15 Z M 26 16 C 19.898438 16 16 20.8125 16 26.3125 C 16 31.613281 19.8125 34.8125 24.3125 34.8125 C 26.210938 34.8125 27.585938 34.613281 29.1875 33.8125 L 28.6875 32.3125 C 27.585938 32.914063 26.1875 33.1875 24.6875 33.1875 C 20.6875 33.1875 17.8125 30.5 17.8125 26 C 17.8125 20.699219 21.386719 17.40625 25.6875 17.40625 C 29.886719 17.40625 32.1875 20.207031 32.1875 23.90625 C 32.1875 27.007813 30.707031 28.695313 29.40625 28.59375 C 28.605469 28.59375 28.386719 27.800781 28.6875 26 L 29.5 21 C 28.800781 20.699219 27.605469 20.40625 26.40625 20.40625 C 22.605469 20.40625 20.09375 23.386719 20.09375 26.6875 C 20.09375 28.886719 21.394531 30.1875 23.09375 30.1875 C 24.59375 30.1875 25.789063 29.5 26.6875 28 L 26.8125 28 C 26.914063 29.5 27.800781 30.1875 29 30.1875 C 31.800781 30.1875 34 27.8125 34 23.8125 C 34 19.3125 30.699219 16 26 16 Z M 8 21 L 8 24 L 7 24 C 6.96875 24 6.9375 24 6.90625 24 C 6.355469 24.027344 5.925781 24.496094 5.953125 25.046875 C 5.980469 25.597656 6.449219 26.027344 7 26 L 11 26 C 11.359375 26.003906 11.695313 25.816406 11.878906 25.503906 C 12.058594 25.191406 12.058594 24.808594 11.878906 24.496094 C 11.695313 24.183594 11.359375 23.996094 11 24 L 10 24 L 10 21 Z M 26.09375 22.1875 C 26.59375 22.1875 26.988281 22.304688 27.1875 22.40625 L 26.6875 25.09375 C 26.488281 26.695313 25.199219 28.3125 24 28.3125 C 22.898438 28.3125 22.40625 27.601563 22.40625 26.5 C 22.40625 24.199219 23.992188 22.1875 26.09375 22.1875 Z M 8 27 L 8 30 L 7 30 C 6.96875 30 6.9375 30 6.90625 30 C 6.355469 30.027344 5.925781 30.496094 5.953125 31.046875 C 5.980469 31.597656 6.449219 32.027344 7 32 L 11 32 C 11.359375 32.003906 11.695313 31.816406 11.878906 31.503906 C 12.058594 31.191406 12.058594 30.808594 11.878906 30.496094 C 11.695313 30.183594 11.359375 29.996094 11 30 L 10 30 L 10 27 Z M 8 33 L 8 36 L 7 36 C 6.96875 36 6.9375 36 6.90625 36 C 6.355469 36.027344 5.925781 36.496094 5.953125 37.046875 C 5.980469 37.597656 6.449219 38.027344 7 38 L 11 38 C 11.359375 38.003906 11.695313 37.816406 11.878906 37.503906 C 12.058594 37.191406 12.058594 36.808594 11.878906 36.496094 C 11.695313 36.183594 11.359375 35.996094 11 36 L 10 36 L 10 33 Z"/></svg>
